public/editor-src/editor/icons/fa/hospital-alt.svg

<svg xmlns="http://www.w3.org/2000/svg" viewBox="0 0 640 512"><!--! Font Awesome Free 6.4.0 by @fontawesome - https://fontawesome.com License - https://fontawesome.com/license/free (Icons: CC BY 4.0, Fonts: SIL OFL 1.1, Code: MIT License) Copyright 2023 Fonticons, Inc.--><path d="M192 48c0-26.5 21.5-48 48-48h160c26.5 0 48 21.5 48 48v464h-80v-80c0-26.5-21.5-48-48-48s-48 21.5-48 48v80h-80V48zM48 96h112v416H48c-26.5 0-48-21.5-48-48V320h80c8.8 0 16-7.2 16-16s-7.2-16-16-16H0v-64h80c8.8 0 16-7.2 16-16s-7.2-16-16-16H0v-48c0-26.5 21.5-48 48-48zm544 0c26.5 0 48 21.5 48 48v48h-80c-8.8 0-16 7.2-16 16s7.2 16 16 16h80v64h-80c-8.8 0-16 7.2-16 16s7.2 16 16 16h80v144c0 26.5-21.5 48-48 48H480V96h112zM312 64c-8.8 0-16 7.2-16 16v24h-24c-8.8 0-16 7.2-16 16v16c0 8.8 7.2 16 16 16h24v24c0 8.8 7.2 16 16 16h16c8.8 0 16-7.2 16-16v-24h24c8.8 0 16-7.2 16-16v-16c0-8.8-7.2-16-16-16h-24V80c0-8.8-7.2-16-16-16h-16z"/></svg>

<svg xmlns="http://www.w3.org/2000/svg" viewBox="0 0 640 512"><!--! Font Awesome Free 6.4.0 by @fontawesome - https://fontawesome.com License - https://fontawesome.com/license/free (Icons: CC BY 4.0, Fonts: SIL OFL 1.1, Code: MIT License) Copyright 2023 Fonticons, Inc. --><path d="M192 48c0-26.5 21.5-48 48-48H400c26.5 0 48 21.5 48 48V512H368V432c0-26.5-21.5-48-48-48s-48 21.5-48 48v80H192V48zM48 96H160V512H48c-26.5 0-48-21.5-48-48V320H80c8.8 0 16-7.2 16-16s-7.2-16-16-16H0V224H80c8.8 0 16-7.2 16-16s-7.2-16-16-16H0V144c0-26.5 21.5-48 48-48zm544 0c26.5 0 48 21.5 48 48v48H560c-8.8 0-16 7.2-16 16s7.2 16 16 16h80v64H560c-8.8 0-16 7.2-16 16s7.2 16 16 16h80V464c0 26.5-21.5 48-48 48H480V96H592zM312 64c-8.8 0-16 7.2-16 16v24H272c-8.8 0-16 7.2-16 16v16c0 8.8 7.2 16 16 16h24v24c0 8.8 7.2 16 16 16h16c8.8 0 16-7.2 16-16V152h24c8.8 0 16-7.2 16-16V120c0-8.8-7.2-16-16-16H344V80c0-8.8-7.2-16-16-16H312z"/></svg>
